X:9638
T:Limoux carnival tunes Valse
R:Other
O:France
M:3/4
K:A
E6|E4G2|F6|E6| C6|C4D2|(B,6|B,6)|\
B6|C2D2|(G6|G2)F2G2| (E6|E2)D2E2|(C6|C6)|\
E6|E4F2|F6|E6|\
A6|G4A2|(F6|F6)|\
F6|G4A2|(c6|c2)A2F2| E6|B4c2|(A6|A2)  |:\
E2c2|\
B3B B2|B2E2 B2|A3A A2|A2E2 A2|
G2EF GA|B^A Bc de|c6|A2E2 c2|\
B3B B2|B2E2 B2|A3A A2|A2E2 A2|G2EF GA|B^A Bd cB|(A6|A2):|


